!!!OTL: WO BIST DU DENN SO LANG GEWES'N
!!!ARE: Europa, Mitteleuropa, Deutschland, Wilsnack
!!!SCT: E0190B
!!!YEM: Copyright 1995, estate of Helmut Schaffrath.
**kern
*ICvox
*Ivox
*M4/4
*k[b-]
*F:
{4c
=1
4f
4f
4cc
4cc
=2
4a
8cc
8a
2f}
=3
{4.g
8f
4g
4b-
=4
4a
4g
4f}
{4c
=5
4f
4f
4cc
4cc
=6
4a
8cc
8a
2f}
=7
{4.g
8f
4g
4b-
=8
4a
4g
4f}
{4c
=9
4f
4f
4cc
4cc
=10
4a
8cc
8a
4f}
{4f
=11
4g
4g
4e
4c
=12
2f
4r}
{4f
=13
4g
8a
8b-
2cc
=14
2a
4r}
{4cc
=15
4.dd
8cc
4b-
4g
=16
2a
4r}
==
!!!AGN: erzaehlendes Volks - Lied, Sage, Familien - Geschichte
!!!ONB: ESAC (Essen Associative Code) Database: ERK1
!!!AMT: simple quadruple
!!!AIN: vox
!!!EED: Helmut Schaffrath
!!!EEV: 1.0
*-
